assets/icons/icon_svg/working_days_icon.svg

<svg enable-background="new 0 0 192 192" viewBox="0 0 192 192" xmlns="http://www.w3.org/2000/svg"><path d="m0 0h192v192h-192z" fill="none"/><path d="m167.3 17h-21.4-.4v-6.7c0-3.6-2.9-6.5-6.5-6.5s-6.5 2.9-6.5 6.5v6.7h-73v-6.7c0-3.6-2.9-6.5-6.5-6.5s-6.5 2.9-6.5 6.5v6.7h-.4-21.4c-7.9 0-14.3 6.4-14.3 14.3v142.6c0 7.9 6.4 14.3 14.3 14.3h142.6c7.9 0 14.3-6.4 14.3-14.3v-142.6c-.1-7.9-6.4-14.3-14.3-14.3zm-121.2 19h.4v1.3c0 3.6 2.9 6.5 6.5 6.5s6.5-2.9 6.5-6.5v-1.3h73v1.3c0 3.6 2.9 6.5 6.5 6.5s6.5-2.9 6.5-6.5v-1.3h.4 16.6v17.8h-133.1v-17.8zm-16.7 133.1v-96.3h133.1v96.3z"/><path d="m65.2 127.3h-16.2c-2.7 0-4.9 2.2-4.9 4.9v16.2c0 2.7 2.2 4.9 4.9 4.9h16.2c2.7 0 4.9-2.2 4.9-4.9v-16.2c0-2.7-2.2-4.9-4.9-4.9z"/><path d="m65.2 88.4h-16.2c-2.7 0-4.9 2.2-4.9 4.9v16.2c0 2.7 2.2 4.9 4.9 4.9h16.2c2.7 0 4.9-2.2 4.9-4.9v-16.2c0-2.7-2.2-4.9-4.9-4.9z"/><path d="m104.1 127.3h-16.2c-2.7 0-4.9 2.2-4.9 4.9v16.2c0 2.7 2.2 4.9 4.9 4.9h16.2c2.7 0 4.9-2.2 4.9-4.9v-16.2c0-2.7-2.2-4.9-4.9-4.9z"/><path d="m104.1 88.4h-16.2c-2.7 0-4.9 2.2-4.9 4.9v16.2c0 2.7 2.2 4.9 4.9 4.9h16.2c2.7 0 4.9-2.2 4.9-4.9v-16.2c0-2.7-2.2-4.9-4.9-4.9z"/><path d="m143 127.3h-16.2c-2.7 0-4.9 2.2-4.9 4.9v16.2c0 2.7 2.2 4.9 4.9 4.9h16.2c2.7 0 4.9-2.2 4.9-4.9v-16.2c-.1-2.7-2.2-4.9-4.9-4.9z"/><path d="m143 88.4h-16.2c-2.7 0-4.9 2.2-4.9 4.9v16.2c0 2.7 2.2 4.9 4.9 4.9h16.2c2.7 0 4.9-2.2 4.9-4.9v-16.2c-.1-2.7-2.2-4.9-4.9-4.9z"/></svg>

<?xml version="1.0" encoding="utf-8"?>
<!-- Generator: Adobe Illustrator 25.4.1, SVG Export Plug-In . SVG Version: 6.00 Build 0)  -->
<svg version="1.1" id="レイヤー_1" xmlns="http://www.w3.org/2000/svg" xmlns:xlink="http://www.w3.org/1999/xlink" x="0px"
	 y="0px" viewBox="0 0 192 192" style="enable-background:new 0 0 192 192;" xml:space="preserve">
<style type="text/css">
	.st0{fill:none;}
</style>
<g id="レイヤー_1_00000068660636837855039000000004636264455804474262_">
</g>
<g id="_x31_">
	<rect class="st0" width="192" height="192"/>
	<g>
		<path d="M167.3,17h-21.4h-0.4v-6.7c0-3.6-2.9-6.5-6.5-6.5s-6.5,2.9-6.5,6.5V17h-73v-6.7c0-3.6-2.9-6.5-6.5-6.5s-6.5,2.9-6.5,6.5
			V17h-0.4H24.7c-7.9,0-14.3,6.4-14.3,14.3v142.6c0,7.9,6.4,14.3,14.3,14.3h142.6c7.9,0,14.3-6.4,14.3-14.3V31.3
			C181.5,23.4,175.2,17,167.3,17z M46.1,36h0.4v1.3c0,3.6,2.9,6.5,6.5,6.5s6.5-2.9,6.5-6.5V36h73v1.3c0,3.6,2.9,6.5,6.5,6.5
			s6.5-2.9,6.5-6.5V36h0.4h16.6v17.8H29.4V36H46.1z M29.4,169.1V72.8h133.1v96.3H29.4z"/>
		<path d="M65.2,127.3H49c-2.7,0-4.9,2.2-4.9,4.9v16.2c0,2.7,2.2,4.9,4.9,4.9h16.2c2.7,0,4.9-2.2,4.9-4.9v-16.2
			C70.1,129.5,67.9,127.3,65.2,127.3z"/>
		<path d="M65.2,88.4H49c-2.7,0-4.9,2.2-4.9,4.9v16.2c0,2.7,2.2,4.9,4.9,4.9h16.2c2.7,0,4.9-2.2,4.9-4.9V93.3
			C70.1,90.6,67.9,88.4,65.2,88.4z"/>
		<path d="M104.1,127.3H87.9c-2.7,0-4.9,2.2-4.9,4.9v16.2c0,2.7,2.2,4.9,4.9,4.9h16.2c2.7,0,4.9-2.2,4.9-4.9v-16.2
			C109,129.5,106.8,127.3,104.1,127.3z"/>
		<path d="M104.1,88.4H87.9c-2.7,0-4.9,2.2-4.9,4.9v16.2c0,2.7,2.2,4.9,4.9,4.9h16.2c2.7,0,4.9-2.2,4.9-4.9V93.3
			C109,90.6,106.8,88.4,104.1,88.4z"/>
		<path d="M143,127.3h-16.2c-2.7,0-4.9,2.2-4.9,4.9v16.2c0,2.7,2.2,4.9,4.9,4.9H143c2.7,0,4.9-2.2,4.9-4.9v-16.2
			C147.8,129.5,145.7,127.3,143,127.3z"/>
		<path d="M143,88.4h-16.2c-2.7,0-4.9,2.2-4.9,4.9v16.2c0,2.7,2.2,4.9,4.9,4.9H143c2.7,0,4.9-2.2,4.9-4.9V93.3
			C147.8,90.6,145.7,88.4,143,88.4z"/>
	</g>
</g>
</svg>
